img/instagram.svg

<svg xmlns="http://www.w3.org/2000/svg" viewBox="0 0 70 70" enable-background="new 0 0 70 70"><style type="text/css">.st0{fill:#000820;}</style><path class="st0" d="M43.9 34.9c0 4.9-4 9-8.9 9s-8.9-4.1-8.9-9c0-1.2.2-2.4.7-3.4h-4.7v13.5c0 1.7 1.2 3.4 2.9 3.4h20c1.7 0 3-1.7 3-3.4v-13.5h-4.8c.5 1 .7 2.2.7 3.4zM48.1 28v-5.6000000000000005h-5.9l.2 5.6zM35 40.8c3.2 0 5.8-2.6 5.8-5.8 0-1.3-.4-2.4-1.1-3.4-1-1.4-2.7-2.4-4.7-2.4s-3.6 1-4.7 2.4c-.7.9-1.1 2.1-1.1 3.4 0 3.2 2.6 5.8 5.8 5.8zM35 2.3c-18.1 0-32.7 14.6-32.7 32.7s14.6 32.7 32.7 32.7 32.7-14.6 32.7-32.7-14.6-32.7-32.7-32.7zm16.1 29.3v13.4c0 3.5-2.5 6.4-6 6.4h-20.1c-3.5 0-5.9-3-5.9-6.4v-20c0-3.5 2.4-6.5 5.9-6.5h20c3.5 0 6 3 6 6.5v6.6z"/></svg>

<?xml version="1.0" encoding="utf-8"?>
<!-- Generator: Adobe Illustrator 19.1.0, SVG Export Plug-In . SVG Version: 6.00 Build 0)  -->
<svg version="1.1" id="Layer_1" xmlns="http://www.w3.org/2000/svg" xmlns:xlink="http://www.w3.org/1999/xlink" x="0px" y="0px"
	 viewBox="0 0 70 70" style="enable-background:new 0 0 70 70;" xml:space="preserve">
<style type="text/css">
	.st0{fill:#000820;}
</style>
<g>
	<path class="st0" d="M43.9,34.9c0,4.9-4,9-8.9,9c-4.9,0-8.9-4.1-8.9-9c0-1.2,0.2-2.4,0.7-3.4h-4.7V45c0,1.7,1.2,3.4,2.9,3.4H45
		c1.7,0,3-1.7,3-3.4V31.5h-4.8C43.7,32.5,43.9,33.7,43.9,34.9z"/>
	<polygon class="st0" points="48.1,28 48.1,23.1 48.1,22.4 47.1,22.4 42.2,22.4 42.4,28 	"/>
	<path class="st0" d="M35,40.8c3.2,0,5.8-2.6,5.8-5.8c0-1.3-0.4-2.4-1.1-3.4c-1-1.4-2.7-2.4-4.7-2.4s-3.6,1-4.7,2.4
		c-0.7,0.9-1.1,2.1-1.1,3.4C29.2,38.2,31.8,40.8,35,40.8z"/>
	<path class="st0" d="M35,2.3C16.9,2.3,2.3,16.9,2.3,35c0,18.1,14.6,32.7,32.7,32.7c18.1,0,32.7-14.6,32.7-32.7
		C67.7,16.9,53.1,2.3,35,2.3z M51.1,31.6V45c0,3.5-2.5,6.4-6,6.4H25c-3.5,0-5.9-3-5.9-6.4V31.6V25c0-3.5,2.4-6.5,5.9-6.5H45
		c3.5,0,6,3,6,6.5V31.6z"/>
</g>
</svg>
